X: 38327
T: Stack Of Rye, The
R: hornpipe
M: 4/4
K: Adorian
AB|:ceec BddB|ABAG EGED|GABd dBde|dBAB FGAB|
ceec BddB|ABAG EBed|B2BA GA B/A/G|1 A6 AB:|2 A6 B/c/d||
eaab a3b|aged e2 d2|e/f/g f/g/a gbag|gedB FGAB|
ceec BddB|ABAG EBed|B2BA GA{d}BG|1 A6 B/c/d:|2 A6 AB||

